X:857
T: Bus Stop Reel
O:england
C: Anita Anderson \2511987
R: reel
D: Open House "Open House"; Kevin Burke (fiddle), Paul Kotapish (guitar) et al.
D: Salmonberry "New England Contra Dance Music"
B: "The Portland Collection".
B: "Brand New Old Time Fiddle Tunes (V.3)"
B: Tunes From the Western Edge, by Anita Anderson and Michael Mendelson.
N: Anita says she made up the tune "while waiting for the bus to work".
M: C|
L: 1/8
K: Bm
|: "Bm"B2fB eBd2 | BcdB "A"cBAc | "Bm"B2fB eBdB | "D"def^g "A"afec | "Bm"B2fB eBd2 |
| BcdB "A"cBA2 | "G"GABd "A"cBAc | "(F#m)"dBcA "Bm"B4 :: "Bm"fb-ba fedc | Bcde "(F)"f4 |
| "Bm"fb-ba "D"fed2 | "E"ef^ge "F"f4 | "Bm"fb-ba fedc | Bcde "(D)"f2ed | "A"cBAG FGAc | "(F#m)"dBcA "Bm"B4 :|
